data/yuji-syuku.svg

<svg width="79.058" height="20.272" viewBox="0 0 79.058 20.272" xmlns="http://www.w3.org/2000/svg"><path transform="translate(0 16.24) scale(.014 -.014)" d="m688 618q-34-2-57.5-14.5t-41.5-32.5q-22-24-39-55.5t-34-62.5q-8-16-20-32-12-17-25-30t-23-29q-10-17-23-33.5t-24-25.5q4-23 4-52.5t-1-60.5q0-34 0-66t5-56q4-4 9-3t7 6q9-10 22-15.5t24-11.5q12-7 16.5-18.5t-11.5-24.5q-24 3-48.5 3t-49.5 0q-30-1-60.5-0.5t-62.5 5.5q-1 26 13 37t31 19q9 5 18 9.5t15 12.5q0 8 0.5 23.5t0.5 35.5q1 26 1.5 55.5t0 56-2.5 41.5q-3 20-18 40t-30 39q-13 18-26 37.5t-26 38.5q-18 28-35.5 55.5t-34.5 53.5q-2 8-10 10t-13 6q0 8-1 15.5t-5 11.5q-6 1-12.5 1.5t-13.5 0.5q-8 0-16.5 0.5t-18.5 2.5q-2 2-3 5.5t-6 4.5q-3 14 1 20t10 11q3 3 4 4 20-3 44-2t48 3q12 1 24 2t23 1q31 1 53.5-7t29.5-32q-14-10-35.5-12.5t-44.5-2.5q20-37 46.5-75.5t55.5-76.5q17-21 33-42.5t31-41.5q15 21 29.5 42t29.5 42q26 38 52 75.5t50 76.5q-8 1-21 0t-28-2q-8-1-16-1.5t-15-0.5q-15 8-11.5 27.5t16.5 26.5q20-2 41.5-1t43.5 2q13 1 26 2t25 1q29 0 51-8.5t29-33.5z"/><path transform="translate(10.36 16.24) scale(.014 -.014)" d="m564 20q-5-15-19.5-20t-32.5-6q-9 0-19 0.5t-19 0.5q-8 1-15.5 1t-13.5 0q-15 7-16.5 21.5t0.5 31.5q0 7 0.5 14t0.5 14q-12-6-22.5-14.5t-21.5-17.5q-22-18-47.5-34t-64.5-15q-21 1-34 9.5t-35 10.5q-29 35-38 83t-10 102q0 21 0.5 43.5t1.5 44.5q1 31 1.5 61t-1.5 59q-4 0-9-0.5t-10-1.5q-11-2-21.5-2t-16.5 8q1 17 11.5 27t26.5 14q8 2 16.5 3t16.5 1q9 0 18-1t17-3q25-6 35-18-16-54-19.5-122t-2.5-142q1-25 4-50.5t11.5-45 22.5-25.5q23-9 48-5t47 16 35 27q19 21 28.5 51t12.5 65 2 73-3 74q0 12-1 23.5t-1 22.5q-4 0-12-1-12-1-25 0.5t-20 15.5q2 7 4.5 12.5t2.5 14.5q17 2 33 6.5t30 7.5q15 3 28 3 6 0 11.5-1t10.5-3q15-5 27-17-13-4-13.5-19t-7.5-26q2-42 2.5-96t0.5-110q0-11-0.5-21.5t-1.5-21.5q-2-27-1.5-50.5t14.5-40.5q15-6 28-14.5t26-16.5z"/><path transform="translate(19.46 16.24) scale(.014 -.014)" d="m324 444q-18-29-21-83t-1-117q0-10 0.5-20t1.5-20q3-68 3.5-136.5t-10.5-121.5q-8-37-24.5-63.5t-45.5-35.5q-7-2-28-4.5t-45-2-41 4.5q-15 5-26.5 15.5t-28.5 18.5q-7 17-11 39t2 43q20 24 36.5 22.5t29.5-15.5q15-16 26-41t16-43q31-1 55 14.5t28 46.5q7 48 4.5 120.5t-6.5 146.5q-3 53-5.5 102t-0.5 86q-6 2-12.5 0.5t-14.5-4.5-18-5-23 0q-4 9-7.5 19.5t-4.5 23.5q22 13 53 20 25 5 51 6t47-6q6-1 11.5-4t9.5-6zm-14 114q-13-22-36-23.5t-42 11-21 32.5q-2 29 16 43t39 12q22-2 37.5-21t6.5-54z"/><path transform="translate(25.718 16.24) scale(.014 -.014)" d="m326 24q0-10-19-15t-45.5-6.5-50.5-1.5q-7 0-14-0.5t-12-0.5q-3 0-13 2-9 3-20 4.5t-21-3.5q-13 7-12 14.5t4 15.5q2 3 3 7t1 7q17 8 34.5 14t26.5 21q0 59-0.5 109.5t0 102 0.5 111.5q-10 5-20.5 5t-20.5-1q-6 0-11-0.5t-9 0.5q0 5-2 9t-5 8q-4 5-5 10t8 13q10 1 20.5 2.5t21.5 2.5q26 3 51.5 5t48.5-3v-2q0-50-1.5-110t-4-120-5.5-111q0-2 0-8-1-6-1-12.5t1-10.5q3-11 14.5-17.5t23.5-11.5q13-5 23.5-11.5t10.5-17.5zm-61 580q11-24 3.5-43t-28.5-26-52 3q-18 24-14 46t18 35q16 14 38.5 13t34.5-28z"/><path transform="translate(34.958 16.24) scale(.014 -.014)" d="m516 130q-11-44-43.5-75.5t-76.5-46.5-95.5-13.5-103.5 21.5q-10-2-17-7.5t-13-12.5q-9-9-18-13.5t-25 8.5q-11 18-15 47.5t-2.5 63 7.5 63 15 46.5q23-8 31-25.5t12-38.5q5-22 9.5-43.5t20.5-38.5q17-17 41-24.5t50-7.5q33 1 65.5 12.5t57 31 31.5 44.5q6 43-3 69t-28 43q-23 22-56.5 35.5t-66.5 32.5q-13 8-23.5 19t-23.5 18q-14 8-29.5 13t-26.5 12q-23 15-39.5 39t-24.5 52q-4 14-6 29t-2 31q0 32 10.5 63t32.5 56q39 18 88 28t100 8.5 95-20.5q4 2 7 5t5 7q6 7 12.5 11.5t19.5-3.5q6-24 7.5-59.5t-2-69-13.5-50.5q-21 1-29.5 14.5t-10 33.5-1.5 42q0 2 0 3-23 21-59 32.5t-74 11.5q-30 0-56.5-8.5t-43.5-26.5q-14-15-20-36t0-50q2-11 10.5-24.5t16.5-21.5l6-6q24-22 59.5-41t75.5-38.5 75-43.5q33-22 57-50t33.5-65-3.5-86z"/><path transform="translate(43.498 16.24) scale(.014 -.014)" d="m569 425q-5-13-16.5-16.5t-25-6-24.5-12.5q-10-10-12-18t-9-26q-11-30-30.5-72.5t-43-91-47.5-98-45.5-94-36.5-76.5q-8-19-18-36.5t-27-28.5q-24-16-61-10-21 4-30.5 17t-30.5 23q-1 21 7 34.5t21 20.5q17 8 36.5 4.5t32.5-19.5q17 10 33.5 36.5t29.5 55.5 21 48q-3 9-10 13t-13 10q-28 83-61 161.5t-64 158.5q-18-1-34 0t-27 7q-7 8-5.5 12.5t4.5 8.5q2 2 4 5.5t1 8.5q5 0 10.5 0.5t11.5 1.5q19 2 43 4t48 1q31-1 56.5-7t35.5-23q-16-7-33.5-13.5t-37.5-11.5q23-67 49.5-128.5t49.5-128.5q38 56 64.5 121.5t52.5 132.5q-4 4-12 4.5t-17 0.5q-8-1-16-0.5t-13 4.5q0 4-0.5 7.5t-1.5 7.5q-2 8-1.5 14.5t9.5 12.5q11 0 20.5 0.5t19.5 0.5q43 1 76.5-1t66.5-19z"/><path transform="translate(52.178 16.24) scale(.014 -.014)" d="m564 20q-5-15-19.5-20t-32.5-6q-9 0-19 0.5t-19 0.5q-8 1-15.5 1t-13.5 0q-15 7-16.5 21.5t0.5 31.5q0 7 0.5 14t0.5 14q-12-6-22.5-14.5t-21.5-17.5q-22-18-47.5-34t-64.5-15q-21 1-34 9.5t-35 10.5q-29 35-38 83t-10 102q0 21 0.5 43.5t1.5 44.5q1 31 1.5 61t-1.5 59q-4 0-9-0.5t-10-1.5q-11-2-21.5-2t-16.5 8q1 17 11.5 27t26.5 14q8 2 16.5 3t16.5 1q9 0 18-1t17-3q25-6 35-18-16-54-19.5-122t-2.5-142q1-25 4-50.5t11.5-45 22.5-25.5q23-9 48-5t47 16 35 27q19 21 28.5 51t12.5 65 2 73-3 74q0 12-1 23.5t-1 22.5q-4 0-12-1-12-1-25 0.5t-20 15.5q2 7 4.5 12.5t2.5 14.5q17 2 33 6.5t30 7.5q15 3 28 3 6 0 11.5-1t10.5-3q15-5 27-17-13-4-13.5-19t-7.5-26q2-42 2.5-96t0.5-110q0-11-0.5-21.5t-1.5-21.5q-2-27-1.5-50.5t14.5-40.5q15-6 28-14.5t26-16.5z"/><path transform="translate(61.278 16.24) scale(.014 -.014)" d="m557 35q-2-15-13.5-21.5t-26.5-8.5q-12-2-24-1.5t-23 0.5q-5 1-9 1t-8 0q-34 56-69 110.5t-69 111.5q-22-13-38-32t-34-36q-1-12-1-23t0-21q0-11 0-21.5t-2-22.5q15-16 39.5-23t43.5-18q-4-15-22.5-21t-39.5-6-34 5q-25-5-55-8.5t-54 6.5q-5 7-4 11.5t4 8.5q2 3 3.5 6t0.5 7q10 10 25 14.5t30 8.5q4 90 2 187.5t-6 198.5v6q-1 37-2.5 74t-2.5 74q-9 0-15.5-2.5t-11.5-4.5q-8-3-15.5-5t-17.5 1q-4 6-3 13t3 15q2 4 3 7.5t1 7.5q24 5 48 12.5t44 7.5q14 0 25.5-5.5t20.5-19.5q-9-36-11.5-80.5t-1.5-94.5q1-55 2.5-111t1.5-109q43 31 85 79t79 94q-7 1-25.5 3t-41.5 4q2 11 2.5 22t4.5 18q1 2 3 4 19-4 38.5-3.5t39.5 2.5q8 1 16.5 1.5t16.5 0.5q13 0 25-1t22-5q7-2 13.5-5.5t11.5-8.5q-7-16-26.5-20t-36.5-11q-30-31-55.5-66t-53.5-69q16-34 39-69t45-67.5 34-61.5q22-7 44.5-15.5t35.5-24.5z"/><path transform="translate(69.958 16.24) scale(.014 -.014)" d="m564 20q-5-15-19.5-20t-32.5-6q-9 0-19 0.5t-19 0.5q-8 1-15.5 1t-13.5 0q-15 7-16.5 21.5t0.5 31.5q0 7 0.5 14t0.5 14q-12-6-22.5-14.5t-21.5-17.5q-22-18-47.5-34t-64.5-15q-21 1-34 9.5t-35 10.5q-29 35-38 83t-10 102q0 21 0.5 43.5t1.5 44.5q1 31 1.5 61t-1.5 59q-4 0-9-0.5t-10-1.5q-11-2-21.5-2t-16.5 8q1 17 11.5 27t26.5 14q8 2 16.5 3t16.5 1q9 0 18-1t17-3q25-6 35-18-16-54-19.5-122t-2.5-142q1-25 4-50.5t11.5-45 22.5-25.5q23-9 48-5t47 16 35 27q19 21 28.5 51t12.5 65 2 73-3 74q0 12-1 23.5t-1 22.5q-4 0-12-1-12-1-25 0.5t-20 15.5q2 7 4.5 12.5t2.5 14.5q17 2 33 6.5t30 7.5q15 3 28 3 6 0 11.5-1t10.5-3q15-5 27-17-13-4-13.5-19t-7.5-26q2-42 2.5-96t0.5-110q0-11-0.5-21.5t-1.5-21.5q-2-27-1.5-50.5t14.5-40.5q15-6 28-14.5t26-16.5z"/></svg>

<?xml version="1.0" encoding="utf-8" ?>
<svg baseProfile="tiny" height="100%" version="1.2" width="100%" xmlns="http://www.w3.org/2000/svg" xmlns:ev="http://www.w3.org/2001/xml-events" xmlns:xlink="http://www.w3.org/1999/xlink"><defs /><g><path d="M688 618Q654 616 630.5 603.5Q607 591 589 571Q567 547 550.0 515.5Q533 484 516 453Q508 437 496 421Q484 404 471.0 391.0Q458 378 448 362Q438 345 425.0 328.5Q412 312 401 303Q405 280 405.0 250.5Q405 221 404 190Q404 156 404.0 124.0Q404 92 409 68Q413 64 418.0 65.0Q423 66 425 71Q434 61 447.0 55.5Q460 50 471 44Q483 37 487.5 25.5Q492 14 476 1Q452 4 427.5 4.0Q403 4 378 4Q348 3 317.5 3.5Q287 4 255 9Q254 35 268.0 46.0Q282 57 299 65Q308 70 317.0 74.5Q326 79 332 87Q332 95 332.5 110.5Q333 126 333 146Q334 172 334.5 201.5Q335 231 334.5 257.5Q334 284 332 299Q329 319 314.0 339.0Q299 359 284 378Q271 396 258.0 415.5Q245 435 232 454Q214 482 196.5 509.5Q179 537 162 563Q160 571 152.0 573.0Q144 575 139 579Q139 587 138.0 594.5Q137 602 133 606Q127 607 120.5 607.5Q114 608 107 608Q99 608 90.5 608.5Q82 609 72 611Q70 613 69.0 616.5Q68 620 63 621Q60 635 64.0 641.0Q68 647 74 652Q77 655 78 656Q98 653 122.0 654.0Q146 655 170 657Q182 658 194.0 659.0Q206 660 217 660Q248 661 270.5 653.0Q293 645 300 621Q286 611 264.5 608.5Q243 606 220 606Q240 569 266.5 530.5Q293 492 322 454Q339 433 355.0 411.5Q371 390 386 370Q401 391 415.5 412.0Q430 433 445 454Q471 492 497.0 529.5Q523 567 547 606Q539 607 526.0 606.0Q513 605 498 604Q490 603 482.0 602.5Q474 602 467 602Q452 610 455.5 629.5Q459 649 472 656Q492 654 513.5 655.0Q535 656 557 657Q570 658 583.0 659.0Q596 660 608 660Q637 660 659.0 651.5Q681 643 688 618Z" transform="translate(0.0, 72) scale(0.072, -0.072)" /><path d="M564 20Q559 5 544.5 0.0Q530 -5 512 -6Q503 -6 493.0 -5.5Q483 -5 474 -5Q466 -4 458.5 -4.0Q451 -4 445 -4Q430 3 428.5 17.5Q427 32 429 49Q429 56 429.5 63.0Q430 70 430 77Q418 71 407.5 62.5Q397 54 386 45Q364 27 338.5 11.0Q313 -5 274 -4Q253 -3 240.0 5.5Q227 14 205 16Q176 51 167.0 99.0Q158 147 157 201Q157 222 157.5 244.5Q158 267 159 289Q160 320 160.5 350.0Q161 380 159 409Q155 409 150.0 408.5Q145 408 140 407Q129 405 118.5 405.0Q108 405 102 413Q103 430 113.5 440.0Q124 450 140 454Q148 456 156.5 457.0Q165 458 173 458Q182 458 191.0 457.0Q200 456 208 454Q233 448 243 436Q227 382 223.5 314.0Q220 246 221 172Q222 147 225.0 121.5Q228 96 236.5 76.5Q245 57 259 51Q282 42 307.0 46.0Q332 50 354.0 62.0Q376 74 389 89Q408 110 417.5 140.0Q427 170 430 205Q433 240 432.0 278.0Q431 316 429 352Q429 364 428.0 375.5Q427 387 427 398Q423 398 415 397Q403 396 390.0 397.5Q377 399 370 413Q372 420 374.5 425.5Q377 431 377 440Q394 442 410.0 446.5Q426 451 440 454Q455 457 468 457Q474 457 479.5 456.0Q485 455 490 453Q505 448 517 436Q504 432 503.5 417.0Q503 402 496 391Q498 349 498.5 295.0Q499 241 499 185Q499 174 498.5 163.5Q498 153 497 142Q495 115 495.5 91.5Q496 68 510 51Q525 45 538.0 36.5Q551 28 564 20Z" transform="translate(53.279999999999994, 72) scale(0.072, -0.072)" /><path d="M324 444Q306 415 303.0 361.0Q300 307 302 244Q302 234 302.5 224.0Q303 214 304 204Q307 136 307.5 67.5Q308 -1 297 -54Q289 -91 272.5 -117.5Q256 -144 227 -153Q220 -155 199.0 -157.5Q178 -160 154.0 -159.5Q130 -159 113 -155Q98 -150 86.5 -139.5Q75 -129 58 -121Q51 -104 47.0 -82.0Q43 -60 49 -39Q69 -15 85.5 -16.5Q102 -18 115 -32Q130 -48 141.0 -73.0Q152 -98 157 -116Q188 -117 212.0 -101.5Q236 -86 240 -55Q247 -7 244.5 65.5Q242 138 238 212Q235 265 232.5 314.0Q230 363 232 400Q226 402 219.5 400.5Q213 399 205 396Q197 393 187.0 391.0Q177 389 164 391Q160 400 156.5 410.5Q153 421 152 434Q174 447 205 454Q230 459 256.0 460.0Q282 461 303 454Q309 453 314.5 450.0Q320 447 324 444ZM310 558Q297 536 274.0 534.5Q251 533 232.0 545.5Q213 558 211 578Q209 607 227.0 621.0Q245 635 266 633Q288 631 303.5 612.0Q319 593 310 558Z" transform="translate(100.07999999999998, 72) scale(0.072, -0.072)" /><path d="M326 24Q326 14 307.0 9.0Q288 4 261.5 2.5Q235 1 211 1Q204 1 197.0 0.5Q190 0 185 0Q182 0 172 2Q163 5 152.0 6.5Q141 8 131 3Q118 10 119.0 17.5Q120 25 123 33Q125 36 126.0 40.0Q127 44 127 47Q144 55 161.5 61.0Q179 67 188 82Q188 141 187.5 191.5Q187 242 187.5 293.5Q188 345 188 405Q178 410 167.5 410.0Q157 410 147 409Q141 409 136.0 408.5Q131 408 127 409Q127 414 125.0 418.0Q123 422 120 426Q116 431 115.0 436.0Q114 441 123 449Q133 450 143.5 451.5Q154 453 165 454Q191 457 216.5 459.0Q242 461 265 456V454Q265 404 263.5 344.0Q262 284 259.5 224.0Q257 164 254 113Q254 111 254 105Q253 99 253.0 92.5Q253 86 254 82Q257 71 268.5 64.5Q280 58 292 53Q305 48 315.5 41.5Q326 35 326 24ZM265 604Q276 580 268.5 561.0Q261 542 240.0 535.0Q219 528 188 538Q170 562 174.0 584.0Q178 606 192 619Q208 633 230.5 632.0Q253 631 265 604Z" transform="translate(132.26399999999998, 72) scale(0.072, -0.072)" /><path d="M516 130Q505 86 472.5 54.5Q440 23 396 8Q352 -7 300.5 -5.5Q249 -4 197 16Q187 14 180.0 8.5Q173 3 167 -4Q158 -13 149.0 -17.5Q140 -22 124 -9Q113 9 109.0 38.5Q105 68 106.5 101.5Q108 135 114.0 164.5Q120 194 129 211Q152 203 160.0 185.5Q168 168 172 147Q177 125 181.5 103.5Q186 82 202 65Q219 48 243.0 40.5Q267 33 293 33Q326 34 358.5 45.5Q391 57 415.5 76.5Q440 96 447 121Q453 164 444.0 190.0Q435 216 416 233Q393 255 359.5 268.5Q326 282 293 301Q280 309 269.5 320.0Q259 331 246 338Q232 346 216.5 351.0Q201 356 190 363Q167 378 150.5 402.0Q134 426 126 454Q122 468 120.0 483.0Q118 498 118 514Q118 546 128.5 577.0Q139 608 161 633Q200 651 249.0 661.0Q298 671 349.0 669.5Q400 668 444 649Q448 651 451.0 654.0Q454 657 456 661Q462 668 468.5 672.5Q475 677 488 669Q494 645 495.5 609.5Q497 574 493.5 540.5Q490 507 480 490Q459 491 450.5 504.5Q442 518 440.5 538.0Q439 558 439 580Q439 582 439 583Q416 604 380.0 615.5Q344 627 306 627Q276 627 249.5 618.5Q223 610 206 592Q192 577 186.0 556.0Q180 535 186 506Q188 495 196.5 481.5Q205 468 213 460L219 454Q243 432 278.5 413.0Q314 394 354.0 374.5Q394 355 429 331Q462 309 486.0 281.0Q510 253 519.5 216.0Q529 179 516 130Z" transform="translate(179.784, 72) scale(0.072, -0.072)" /><path d="M569 425Q564 412 552.5 408.5Q541 405 527.5 402.5Q514 400 503 390Q493 380 491.0 372.0Q489 364 482 346Q471 316 451.5 273.5Q432 231 408.5 182.5Q385 134 361.0 84.5Q337 35 315.5 -9.5Q294 -54 279 -86Q271 -105 261.0 -122.5Q251 -140 234 -151Q210 -167 173 -161Q152 -157 142.5 -144.0Q133 -131 112 -121Q111 -100 119.0 -86.5Q127 -73 140 -66Q157 -58 176.5 -61.5Q196 -65 209 -81Q226 -71 242.5 -44.5Q259 -18 272.0 11.0Q285 40 293 59Q290 68 283.0 72.0Q276 76 270 82Q242 165 209.0 243.5Q176 322 145 402Q127 401 111.0 402.0Q95 403 84 409Q77 417 78.5 421.5Q80 426 83 430Q85 432 87.0 435.5Q89 439 88 444Q93 444 98.5 444.5Q104 445 110 446Q129 448 153.0 450.0Q177 452 201 451Q232 450 257.5 444.0Q283 438 293 421Q277 414 259.5 407.5Q242 401 222 396Q245 329 271.5 267.5Q298 206 321 139Q359 195 385.5 260.5Q412 326 438 393Q434 397 426.0 397.5Q418 398 409 398Q401 397 393.0 397.5Q385 398 380 402Q380 406 379.5 409.5Q379 413 378 417Q376 425 376.5 431.5Q377 438 386 444Q397 444 406.5 444.5Q416 445 426 445Q469 446 502.5 444.0Q536 442 569 425Z" transform="translate(223.70399999999998, 72) scale(0.072, -0.072)" /><path d="M564 20Q559 5 544.5 0.0Q530 -5 512 -6Q503 -6 493.0 -5.5Q483 -5 474 -5Q466 -4 458.5 -4.0Q451 -4 445 -4Q430 3 428.5 17.5Q427 32 429 49Q429 56 429.5 63.0Q430 70 430 77Q418 71 407.5 62.5Q397 54 386 45Q364 27 338.5 11.0Q313 -5 274 -4Q253 -3 240.0 5.5Q227 14 205 16Q176 51 167.0 99.0Q158 147 157 201Q157 222 157.5 244.5Q158 267 159 289Q160 320 160.5 350.0Q161 380 159 409Q155 409 150.0 408.5Q145 408 140 407Q129 405 118.5 405.0Q108 405 102 413Q103 430 113.5 440.0Q124 450 140 454Q148 456 156.5 457.0Q165 458 173 458Q182 458 191.0 457.0Q200 456 208 454Q233 448 243 436Q227 382 223.5 314.0Q220 246 221 172Q222 147 225.0 121.5Q228 96 236.5 76.5Q245 57 259 51Q282 42 307.0 46.0Q332 50 354.0 62.0Q376 74 389 89Q408 110 417.5 140.0Q427 170 430 205Q433 240 432.0 278.0Q431 316 429 352Q429 364 428.0 375.5Q427 387 427 398Q423 398 415 397Q403 396 390.0 397.5Q377 399 370 413Q372 420 374.5 425.5Q377 431 377 440Q394 442 410.0 446.5Q426 451 440 454Q455 457 468 457Q474 457 479.5 456.0Q485 455 490 453Q505 448 517 436Q504 432 503.5 417.0Q503 402 496 391Q498 349 498.5 295.0Q499 241 499 185Q499 174 498.5 163.5Q498 153 497 142Q495 115 495.5 91.5Q496 68 510 51Q525 45 538.0 36.5Q551 28 564 20Z" transform="translate(268.344, 72) scale(0.072, -0.072)" /><path d="M557 35Q555 20 543.5 13.5Q532 7 517 5Q505 3 493.0 3.5Q481 4 470 4Q465 5 461.0 5.0Q457 5 453 5Q419 61 384.0 115.5Q349 170 315 227Q293 214 277.0 195.0Q261 176 243 159Q242 147 242.0 136.0Q242 125 242 115Q242 104 242.0 93.5Q242 83 240 71Q255 55 279.5 48.0Q304 41 323 30Q319 15 300.5 9.0Q282 3 261.0 3.0Q240 3 227 8Q202 3 172.0 -0.5Q142 -4 118 6Q113 13 114.0 17.5Q115 22 118 26Q120 29 121.5 32.0Q123 35 122 39Q132 49 147.0 53.5Q162 58 177 62Q181 152 179.0 249.5Q177 347 173 448V454Q172 491 170.5 528.0Q169 565 168 602Q159 602 152.5 599.5Q146 597 141 595Q133 592 125.5 590.0Q118 588 108 591Q104 597 105.0 604.0Q106 611 108 619Q110 623 111.0 626.5Q112 630 112 634Q136 639 160.0 646.5Q184 654 204 654Q218 654 229.5 648.5Q241 643 250 629Q241 593 238.5 548.5Q236 504 237 454Q238 399 239.5 343.0Q241 287 241 234Q284 265 326.0 313.0Q368 361 405 407Q398 408 379.5 410.0Q361 412 338 414Q340 425 340.5 436.0Q341 447 345 454Q346 456 348 458Q367 454 386.5 454.5Q406 455 426 457Q434 458 442.5 458.5Q451 459 459 459Q472 459 484.0 458.0Q496 457 506 453Q513 451 519.5 447.5Q526 444 531 439Q524 423 504.5 419.0Q485 415 468 408Q438 377 412.5 342.0Q387 307 359 273Q375 239 398.0 204.0Q421 169 443.0 136.5Q465 104 477 75Q499 68 521.5 59.5Q544 51 557 35Z" transform="translate(315.144, 72) scale(0.072, -0.072)" /><path d="M564 20Q559 5 544.5 0.0Q530 -5 512 -6Q503 -6 493.0 -5.5Q483 -5 474 -5Q466 -4 458.5 -4.0Q451 -4 445 -4Q430 3 428.5 17.5Q427 32 429 49Q429 56 429.5 63.0Q430 70 430 77Q418 71 407.5 62.5Q397 54 386 45Q364 27 338.5 11.0Q313 -5 274 -4Q253 -3 240.0 5.5Q227 14 205 16Q176 51 167.0 99.0Q158 147 157 201Q157 222 157.5 244.5Q158 267 159 289Q160 320 160.5 350.0Q161 380 159 409Q155 409 150.0 408.5Q145 408 140 407Q129 405 118.5 405.0Q108 405 102 413Q103 430 113.5 440.0Q124 450 140 454Q148 456 156.5 457.0Q165 458 173 458Q182 458 191.0 457.0Q200 456 208 454Q233 448 243 436Q227 382 223.5 314.0Q220 246 221 172Q222 147 225.0 121.5Q228 96 236.5 76.5Q245 57 259 51Q282 42 307.0 46.0Q332 50 354.0 62.0Q376 74 389 89Q408 110 417.5 140.0Q427 170 430 205Q433 240 432.0 278.0Q431 316 429 352Q429 364 428.0 375.5Q427 387 427 398Q423 398 415 397Q403 396 390.0 397.5Q377 399 370 413Q372 420 374.5 425.5Q377 431 377 440Q394 442 410.0 446.5Q426 451 440 454Q455 457 468 457Q474 457 479.5 456.0Q485 455 490 453Q505 448 517 436Q504 432 503.5 417.0Q503 402 496 391Q498 349 498.5 295.0Q499 241 499 185Q499 174 498.5 163.5Q498 153 497 142Q495 115 495.5 91.5Q496 68 510 51Q525 45 538.0 36.5Q551 28 564 20Z" transform="translate(359.784, 72) scale(0.072, -0.072)" /></g></svg>
